X:11
T:Hirsgärtler (Natur-Juiz)  A
T:Ruedi Rymann (31.1.1933-10.9.2008)
T:Dirigenten-Notiz, Edi Gasser
C:Unterwalden (CH)
%%partsbox
R:Naturjodel
L:1/8
M:2/4
K:A
[P:A] E3C | F2E2 | CE AB | c2AB | c2e2 | e2dc | B2E2 | e3B | 
e>d cB | A3c | A2F2 | E3z | E3C | F2E2 | CE AB | 
c2AB | c2e2 | e2dc | B2E2 | e3B | e>d cB | A4 || 
M:3/4
[P:B] E>E | D/E/G/B/ e2 E>D | C/E/A/B/ c2e2 | B2E2e2 | B2E2c2 | A3CF2 | 
E3zE>E | D/E/G/B/ e2 E>D | C/E/A/B/ c2e2 | B2E2e2 | B2E2c2 | (a6 | A3)z || 
M:2/4
[P:C] CC CE | AA AC | DD DC | B,4 | Ed Ed | c3B | AG AB | c4 | 
CC CE | AA AC | DD !tenuto!DC | B,4 | Ed Ed | c3B | A2GF | E3z | 
CC CE | AA AC | DD DC | B,4 | Ed Ed | c3B | AG AB | c4 | 
CC CE | AA AC | DD !tenuto!DC | B,4 | Ed Ed | e3d | c2B2 | A4 |] 
%W:Reihenfolge:
W:
W:UJV-Naturjodelsammlung: Code-Nr: 05-06
W:http://www.naturjodler.ch/code 05.htm  (with AUDIO)
W:
W:Am UJV Konzert (18.8.2018) werden wir im Gesamtchor den Hirsgärtler-Juiz singen
W:http://www.jodlerklubgiswil.ch/ujv-konzert-2018-gesamtchor/
%April 30, 2018

